svg/emoji_u1f62f.svg

<svg width="128" height="128" viewBox="0 0 128 128" fill="none" xmlns="http://www.w3.org/2000/svg">
<path d="M63.6001 118.8C35.7001 118.8 5.6001 101.3 5.6001 62.9C5.6001 24.5 35.7001 7 63.6001 7C79.1001 7 93.4001 12.1 104 21.4C115.5 31.6 121.6 46 121.6 62.9C121.6 79.8 115.5 94.1 104 104.3C93.4001 113.6 79.0001 118.8 63.6001 118.8Z" fill="url(#paint0_radial_2352_917)" style=""/>
<path d="M111.49 29.6699C116.82 38.2699 119.6 48.5099 119.6 59.8999C119.6 76.7999 113.5 91.0999 102 101.3C91.4002 110.6 77.0002 115.8 61.6002 115.8C43.5402 115.8 24.6002 108.45 13.4202 92.8599C24.1802 110.52 44.4202 118.8 63.6002 118.8C79.0002 118.8 93.4002 113.6 104 104.3C115.5 94.0999 121.6 79.7999 121.6 62.8999C121.6 50.1599 118.13 38.8399 111.49 29.6699Z" fill="#EB8F00" style="fill:#EB8F00;fill:color(display-p3 0.9216 0.5608 0.0000);fill-opacity:1;"/>
<path d="M77 89C77 95.6281 71.6281 101 65 101C58.3719 101 53 95.6281 53 89C53 82.3719 58.3719 77 65 77C71.6094 76.9813 76.9813 82.3157 77 88.925C77 88.9532 77 88.9719 77 89Z" fill="#422B0D" style="fill:#422B0D;fill:color(display-p3 0.2588 0.1686 0.0510);fill-opacity:1;"/>
<path d="M42.6699 46.9399C38.4799 46.9399 34.6699 50.4799 34.6699 56.3599C34.6699 62.2399 38.4799 65.7699 42.6699 65.7699C46.8599 65.7699 50.6699 62.2299 50.6699 56.3599C50.6699 50.4899 46.8599 46.9399 42.6699 46.9399Z" fill="#422B0D" style="fill:#422B0D;fill:color(display-p3 0.2588 0.1686 0.0510);fill-opacity:1;"/>
<path d="M42.2799 50.8701C40.8599 50.1901 39.1499 50.7901 38.4599 52.2101C37.9299 53.3201 38.1699 54.6501 39.0599 55.5101C40.4799 56.1901 42.1899 55.5901 42.8799 54.1701C43.4099 53.0601 43.1699 51.7301 42.2799 50.8701Z" fill="#896024" style="fill:#896024;fill:color(display-p3 0.5373 0.3765 0.1412);fill-opacity:1;"/>
<path d="M86 46.9399C81.81 46.9399 78 50.4799 78 56.3599C78 62.2399 81.81 65.7699 86 65.7699C90.19 65.7699 94 62.2299 94 56.3599C94 50.4899 90.21 46.9399 86 46.9399Z" fill="#422B0D" style="fill:#422B0D;fill:color(display-p3 0.2588 0.1686 0.0510);fill-opacity:1;"/>
<path d="M85.63 50.8701C84.21 50.1901 82.5 50.7901 81.81 52.2101C81.28 53.3201 81.52 54.6501 82.41 55.5101C83.83 56.1901 85.54 55.5901 86.23 54.1701C86.76 53.0601 86.52 51.7301 85.63 50.8701Z" fill="#896024" style="fill:#896024;fill:color(display-p3 0.5373 0.3765 0.1412);fill-opacity:1;"/>
<path d="M28.6999 38C27.9999 38.73 26.8299 38.76 26.0999 38.05C25.4399 37.42 25.3499 36.39 25.8799 35.65C27.0099 34.02 28.3999 32.6 29.9999 31.43C34.1899 28.2 39.4399 26.67 44.7099 27.15C47.1999 27.46 46.7099 30.64 44.4999 30.85C38.5599 31.32 32.9699 33.85 28.6999 38Z" fill="#422B0D" style="fill:#422B0D;fill:color(display-p3 0.2588 0.1686 0.0510);fill-opacity:1;"/>
<path d="M99.7699 38.2298C100.47 38.9598 101.64 38.9898 102.37 38.2798C103.03 37.6498 103.12 36.6198 102.59 35.8798C101.48 34.2698 100.1 32.8598 98.5199 31.7098C94.3299 28.4798 89.0799 26.9498 83.8099 27.4398C81.3299 27.7498 81.8099 30.9198 84.0199 31.1298C89.9399 31.5998 95.4999 34.1098 99.7699 38.2298Z" fill="#422B0D" style="fill:#422B0D;fill:color(display-p3 0.2588 0.1686 0.0510);fill-opacity:1;"/>
<defs>
<radialGradient id="paint0_radial_2352_917" cx="0" cy="0" r="1" gradientUnits="userSpaceOnUse" gradientTransform="translate(63.6001 62.9) scale(56.9597 56.9597)">
<stop offset="0.5" stop-color="#FDE030" style="stop-color:#FDE030;stop-color:color(display-p3 0.9922 0.8784 0.1882);stop-opacity:1;"/>
<stop offset="0.92" stop-color="#F7C02B" style="stop-color:#F7C02B;stop-color:color(display-p3 0.9686 0.7529 0.1686);stop-opacity:1;"/>
<stop offset="1" stop-color="#F4A223" style="stop-color:#F4A223;stop-color:color(display-p3 0.9569 0.6353 0.1373);stop-opacity:1;"/>
</radialGradient>
</defs>
</svg>

<?xml version="1.0" encoding="utf-8"?>
<!-- Generator: Adobe Illustrator 24.1.2, SVG Export Plug-In . SVG Version: 6.00 Build 0)  -->
<svg version="1.1" id="Layer_1" xmlns="http://www.w3.org/2000/svg" xmlns:xlink="http://www.w3.org/1999/xlink" x="0px" y="0px"
	 viewBox="0 0 128 128" style="enable-background:new 0 0 128 128;" xml:space="preserve">
<g id="gold">
	
		<radialGradient id="face_1_" cx="63.6" cy="1696.9" r="56.9597" gradientTransform="matrix(1 0 0 1 0 -1634)" gradientUnits="userSpaceOnUse">
		<stop  offset="0.5" style="stop-color:#FDE030"/>
		<stop  offset="0.92" style="stop-color:#F7C02B"/>
		<stop  offset="1" style="stop-color:#F4A223"/>
	</radialGradient>
	<path id="face" style="fill:url(#face_1_);" d="M63.6,118.8c-27.9,0-58-17.5-58-55.9S35.7,7,63.6,7c15.5,0,29.8,5.1,40.4,14.4
		c11.5,10.2,17.6,24.6,17.6,41.5s-6.1,31.2-17.6,41.4C93.4,113.6,79,118.8,63.6,118.8z"/>
	<path style="fill:#EB8F00;" d="M111.49,29.67c5.33,8.6,8.11,18.84,8.11,30.23c0,16.9-6.1,31.2-17.6,41.4
		c-10.6,9.3-25,14.5-40.4,14.5c-18.06,0-37-7.35-48.18-22.94c10.76,17.66,31,25.94,50.18,25.94c15.4,0,29.8-5.2,40.4-14.5
		c11.5-10.2,17.6-24.5,17.6-41.4C121.6,50.16,118.13,38.84,111.49,29.67z"/>
</g>
<g id="facial_expressions">
	<g id="hushed-face">
		<path id="mouth" style="fill:#422B0D;" d="M77.6,92.4c0,7.07-5.73,12.8-12.8,12.8S52,99.47,52,92.4c0-7.07,5.73-12.8,12.8-12.8
			l0,0c7.05-0.02,12.78,5.67,12.8,12.72C77.6,92.35,77.6,92.37,77.6,92.4z"/>
	</g>
	<path style="fill:#422B0D;" d="M42.67,46.94L42.67,46.94c-4.19,0-8,3.54-8,9.42s3.81,9.41,8,9.41l0,0c4.19,0,8-3.54,8-9.41
		S46.86,46.94,42.67,46.94z"/>
	<g id="peepers">
		<path style="fill:#896024;" d="M42.28,50.87L42.28,50.87c-1.42-0.68-3.13-0.08-3.82,1.34c-0.53,1.11-0.29,2.44,0.6,3.3l0,0
			c1.42,0.68,3.13,0.08,3.82-1.34C43.41,53.06,43.17,51.73,42.28,50.87z"/>
	</g>
	<path style="fill:#422B0D;" d="M86,46.94L86,46.94c-4.19,0-8,3.54-8,9.42s3.81,9.41,8,9.41l0,0c4.19,0,8-3.54,8-9.41
		S90.21,46.94,86,46.94z"/>
	<g id="peepers-2">
		<path style="fill:#896024;" d="M85.63,50.87L85.63,50.87c-1.42-0.68-3.13-0.08-3.82,1.34c-0.53,1.11-0.29,2.44,0.6,3.3l0,0
			c1.42,0.68,3.13,0.08,3.82-1.34C86.76,53.06,86.52,51.73,85.63,50.87z"/>
	</g>
	<g id="eyebrows">
		<path style="fill:#422B0D;" d="M28.7,38c-0.7,0.73-1.87,0.76-2.6,0.05c-0.66-0.63-0.75-1.66-0.22-2.4
			c1.13-1.63,2.52-3.05,4.12-4.22c4.19-3.23,9.44-4.76,14.71-4.28c2.49,0.31,2,3.49-0.21,3.7C38.56,31.32,32.97,33.85,28.7,38
			L28.7,38"/>
	</g>
	<g id="eyebrows-2">
		<path style="fill:#422B0D;" d="M99.77,38.23c0.7,0.73,1.87,0.76,2.6,0.05c0.66-0.63,0.75-1.66,0.22-2.4
			c-1.11-1.61-2.49-3.02-4.07-4.17c-4.19-3.23-9.44-4.76-14.71-4.27c-2.48,0.31-2,3.48,0.21,3.69C89.94,31.6,95.5,34.11,99.77,38.23
			L99.77,38.23"/>
	</g>
</g>
</svg>
